svg/icon/qtum.svg

<svg xmlns="http://www.w3.org/2000/svg" xmlns:xlink="http://www.w3.org/1999/xlink" width="32" height="32" viewBox="0 0 32 32">
  <defs>
    <linearGradient id="qtum-c" x1="50%" x2="50%" y1="0%" y2="100%">
      <stop offset="0%" stop-color="#FFF" stop-opacity=".5"/>
      <stop offset="100%" stop-opacity=".5"/>
    </linearGradient>
    <circle id="qtum-b" cx="16" cy="15" r="15"/>
    <filter id="qtum-a" width="111.7%" height="111.7%" x="-5.8%" y="-4.2%" filterUnits="objectBoundingBox">
      <feOffset dy=".5" in="SourceAlpha" result="shadowOffsetOuter1"/>
      <feGaussianBlur in="shadowOffsetOuter1" result="shadowBlurOuter1" stdDeviation=".5"/>
      <feComposite in="shadowBlurOuter1" in2="SourceAlpha" operator="out" result="shadowBlurOuter1"/>
      <feColorMatrix in="shadowBlurOuter1" values="0 0 0 0 0   0 0 0 0 0   0 0 0 0 0  0 0 0 0.199473505 0"/>
    </filter>
    <path id="qtum-e" d="M25.313057,22.6361289 L23.3403333,20.8804758 L19.3482508,23.8746057 C19.3945234,23.9759206 19.420354,24.0888526 19.420354,24.2079208 C19.420354,24.6453741 19.0716908,25 18.6415929,25 C18.2614033,25 17.9448457,24.7229001 17.8764987,24.3564356 L13.5659792,24.3564356 C13.4976322,24.7229001 13.1810745,25 12.800885,25 C12.3707871,25 12.0221239,24.6453741 12.0221239,24.2079208 C12.0221239,24.0898049 12.0475429,23.9777275 12.0931207,23.8770389 L8.54693276,21.2368658 C8.40954582,21.3605574 8.22888085,21.4356436 8.03097345,21.4356436 C7.60087559,21.4356436 7.25221239,21.0810176 7.25221239,20.6435644 C7.25221239,20.343735 7.41600374,20.0828155 7.65754452,19.9483191 L6.35453705,15.7883775 C6.32960352,15.7908263 6.30432615,15.7920792 6.27876106,15.7920792 C5.8486632,15.7920792 5.5,15.4374533 5.5,15 C5.5,14.5625467 5.8486632,14.2079208 6.27876106,14.2079208 C6.31320622,14.2079208 6.34712906,14.2101953 6.38039233,14.2146048 L7.66105818,10.0536255 C7.41759355,9.91971005 7.25221239,9.65771656 7.25221239,9.35643564 C7.25221239,8.91898238 7.60087559,8.56435644 8.03097345,8.56435644 C8.23272225,8.56435644 8.41655275,8.64238576 8.55488372,8.77039148 L12.1276003,6.19038199 C12.0605406,6.07336768 12.0221239,5.93728652 12.0221239,5.79207921 C12.0221239,5.35462594 12.3707871,5 12.800885,5 C13.1810745,5 13.4976322,5.2770999 13.5659792,5.64356436 L17.8764987,5.64356436 C17.9448457,5.2770999 18.2614033,5 18.6415929,5 C19.0716908,5 19.420354,5.35462594 19.420354,5.79207921 C19.420354,5.9294971 19.3859484,6.0587417 19.3254207,6.17138777 L22.8758187,8.7815146 C23.0154076,8.64692032 23.2039762,8.56435644 23.4115044,8.56435644 C23.8416023,8.56435644 24.1902655,8.91898238 24.1902655,9.35643564 C24.1902655,9.63458273 24.0493068,9.87924413 23.8360823,10.0205522 L25.1117753,14.2096547 C25.1289432,14.2085048 25.1462629,14.2079208 25.1637168,14.2079208 C25.5938147,14.2079208 25.9424779,14.5625467 25.9424779,15 C25.9424779,15.4374533 25.5938147,15.7920792 25.1637168,15.7920792 C25.1550379,15.7920792 25.1463921,15.7919348 25.1377817,15.7916482 L23.6405023,20.6213705 L25.5579568,22.327836 C25.7640326,22.1423186 26.0350152,22.029703 26.3318584,22.029703 C26.9770052,22.029703 27.5,22.5616419 27.5,23.2178218 C27.5,23.8740017 26.9770052,24.4059406 26.3318584,24.4059406 C25.6867116,24.4059406 25.1637168,23.8740017 25.1637168,23.2178218 C25.1637168,23.0064991 25.2179598,22.8080621 25.313057,22.6361289 Z M18.7077625,23.4186606 L20.1945948,20.0700855 C20.0749054,19.9710042 19.9847102,19.8364801 19.9394713,19.6822393 L16.4888846,20.1836104 C16.463655,20.3340864 16.3966954,20.470091 16.3005466,20.5788691 L18.3484999,23.4738539 C18.4389702,23.4364481 18.5379156,23.4158416 18.6415929,23.4158416 C18.6638805,23.4158416 18.6859494,23.4167939 18.7077625,23.4186606 Z M19.1007956,23.5681282 L22.9696691,20.6664072 L21.302249,19.9395775 C21.1598191,20.1269032 20.9366794,20.2475248 20.6858407,20.2475248 C20.6389809,20.2475248 20.5930877,20.2433152 20.5485068,20.2352476 L19.0763857,23.5506907 C19.084636,23.5563481 19.092774,23.562162 19.1007956,23.5681282 Z M18.0358816,23.710036 L15.976023,20.7982219 C15.8961907,20.8263211 15.8104673,20.8415842 15.7212389,20.8415842 C15.6320106,20.8415842 15.5462872,20.8263211 15.4664549,20.7982219 L13.4065963,23.710036 C13.4652249,23.7837303 13.5111167,23.8683383 13.5408658,23.960396 L17.9016121,23.960396 C17.9313612,23.8683383 17.9772529,23.7837303 18.0358816,23.710036 Z M24.7641172,15.6799944 C24.5369921,15.5416225 24.3849558,15.2888699 24.3849558,15 C24.3849558,14.7206071 24.52718,14.4750005 24.7420085,14.3339908 L23.5358966,10.3733782 L23.2662264,14.2476119 C23.5767564,14.3517763 23.800885,14.6492665 23.800885,15 C23.800885,15.3485573 23.579529,15.6445301 23.2719964,15.7504269 L23.5377432,19.6358666 L24.7641172,15.6799944 Z M22.5104967,14.4028271 L20.9255221,11.2984106 C20.8500166,11.3232266 20.769468,11.3366337 20.6858407,11.3366337 C20.6310398,11.3366337 20.5775609,11.3308765 20.5259568,11.3199243 L19.1343573,14.3866204 C19.3089292,14.531875 19.420354,14.7527026 19.420354,15 C19.420354,15.2515569 19.3050577,15.4757244 19.1252807,15.6208179 L20.5597195,18.6737005 C20.6007708,18.6669012 20.6428999,18.6633663 20.6858407,18.6633663 C20.7491916,18.6633663 20.8107757,18.6710601 20.869739,18.6855792 L22.4885049,15.5769066 C22.3375918,15.4324471 22.2433628,15.2274159 22.2433628,15 C22.2433628,14.7617299 22.3468012,14.5480323 22.5104967,14.4028271 Z M22.8836701,15.7795985 C22.8654549,15.7762741 22.8474595,15.7723056 22.8297075,15.7677168 L21.2128015,18.8722392 C21.3675962,19.0170056 21.4646018,19.2247034 21.4646018,19.4554455 C21.4646018,19.4962892 21.4615623,19.5364108 21.455701,19.5755891 L23.1951585,20.3338199 L22.8836701,15.7795985 Z M22.8776909,14.2215174 L23.1640565,10.1076929 C23.0125512,10.0560911 22.881814,9.95840539 22.7879367,9.83100285 L21.4497836,10.3899952 C21.4595049,10.4399839 21.4646018,10.4916638 21.4646018,10.5445545 C21.4646018,10.7534727 21.3850782,10.9434997 21.2551395,11.0850291 L22.8586307,14.2254053 C22.864956,14.2240309 22.8713097,14.2227345 22.8776909,14.2215174 Z M18.7696375,15.7814239 C18.727979,15.788433 18.6852046,15.7920792 18.6415929,15.7920792 C18.5700626,15.7920792 18.5007847,15.7822704 18.4349885,15.7639031 L16.3124049,19.5338702 C16.3749806,19.6080181 16.424304,19.694073 16.4566393,19.7882353 L19.9253201,19.2842351 C19.964605,19.1028943 20.0649873,18.9448694 20.2033934,18.8336286 L18.7696375,15.7814239 Z M18.7808636,14.220551 L20.1768928,11.1440931 C20.038918,11.0228183 19.9432459,10.8531023 19.9154261,10.6609318 L16.4403671,10.1560048 C16.4016908,10.2503815 16.345579,10.3355162 16.2761237,10.4072472 L18.415012,14.2419686 C18.4867088,14.2198274 18.5627838,14.2079208 18.6415929,14.2079208 C18.6891316,14.2079208 18.7356755,14.2122532 18.7808636,14.220551 Z M18.0978667,15.5670569 C17.9528653,15.4232027 17.8628319,15.2222954 17.8628319,15 C17.8628319,14.7856334 17.9465572,14.5911563 18.0825624,14.4485521 L15.9422193,10.6112226 C15.8721658,10.6322687 15.7979993,10.6435644 15.7212389,10.6435644 C15.6713908,10.6435644 15.6226366,10.6388008 15.5753923,10.6296968 L13.3681152,14.457281 C13.499278,14.5990427 13.579646,14.7899754 13.579646,15 C13.579646,15.2181651 13.4929272,15.4157296 13.3526365,15.5589796 L15.5214655,19.2837292 C15.5852196,19.2665686 15.6521795,19.2574257 15.7212389,19.2574257 C15.8163902,19.2574257 15.9075557,19.2747823 15.9918421,19.3065526 L18.0978667,15.5670569 Z M6.72059187,15.6523469 L7.96262991,19.6176394 L8.25580136,15.7743637 C7.90473115,15.6975544 7.64159292,15.3800324 7.64159292,15 C7.64159292,14.6152884 7.91125088,14.294636 8.2688088,14.222909 L7.96589538,10.3888534 L6.7425374,14.3636351 C6.93366831,14.5079716 7.05752212,14.7392746 7.05752212,15 C7.05752212,15.2705746 6.92413413,15.5094619 6.72059187,15.6523469 Z M10.6092525,18.6775319 C10.6569765,18.6682339 10.7062479,18.6633663 10.7566372,18.6633663 C10.825735,18.6633663 10.892731,18.6725194 10.956517,18.6896984 L12.327422,15.6289305 C12.1418035,15.4841576 12.0221239,15.2562942 12.0221239,15 C12.0221239,14.7523793 12.1338402,14.5312975 12.3088057,14.386051 L10.9166887,11.3198887 C10.8650328,11.330864 10.8114975,11.3366337 10.7566372,11.3366337 C10.7116152,11.3366337 10.6674857,11.3327478 10.6245549,11.3252879 L8.94644137,14.4159781 C9.10174447,14.5607793 9.19911504,14.7688242 9.19911504,15 C9.19911504,15.2249337 9.1069318,15.4279687 8.95889417,15.5721548 L10.6092525,18.6775319 Z M10.9328,20.2271739 C10.8761929,20.2404879 10.817223,20.2475248 10.7566372,20.2475248 C10.5129374,20.2475248 10.2953824,20.1336713 10.1525845,19.9554081 L8.80357246,20.5434434 C8.80763899,20.5762348 8.80973451,20.6096507 8.80973451,20.6435644 C8.80973451,20.7364794 8.79400503,20.8256577 8.76510668,20.908495 L12.3395602,23.5697121 C12.3500796,23.5618327 12.3608008,23.5542159 12.3717145,23.5468713 L10.9328,20.2271739 Z M9.98999495,19.5954027 C9.98203162,19.5499733 9.97787611,19.503203 9.97787611,19.4554455 C9.97787611,19.211362 10.0864236,18.9930646 10.2570988,18.8477672 L8.64351298,15.8115825 L8.33070506,19.9122788 C8.46247571,19.9682154 8.5759035,20.059922 8.65926102,20.1754706 L9.98999495,19.5954027 Z M11.51963,19.2960795 L14.9851632,19.7902103 C15.0259132,19.6705221 15.0940862,19.5638585 15.182038,19.4779944 L13.0177091,15.7609732 C12.9488807,15.7812254 12.876129,15.7920792 12.800885,15.7920792 C12.7618733,15.7920792 12.7235316,15.7891616 12.6860593,15.7835292 L11.2969246,18.8849978 C11.4081206,18.9939731 11.4875338,19.1362669 11.51963,19.2960795 Z M11.4997205,19.693153 C11.4575704,19.8295959 11.3800966,19.9501251 11.278201,20.0436522 L12.7413931,23.4181183 C12.7610294,23.4166096 12.780869,23.4158416 12.800885,23.4158416 C12.9045623,23.4158416 13.0035077,23.4364481 13.0939779,23.4738539 L15.1419313,20.5788691 C15.0462215,20.4705877 14.979435,20.3353278 14.9539415,20.1856708 L11.4997205,19.693153 Z M9.99656708,10.3712777 L8.66577976,9.81535698 C8.58226865,9.93464414 8.46706853,10.0293885 8.33267353,10.0868823 L8.65273358,14.1379675 L10.2691247,11.1622656 C10.0915388,11.0170899 9.97787611,10.7943229 9.97787611,10.5445545 C9.97787611,10.485034 9.9843308,10.4270468 9.99656708,10.3712777 Z M10.9469202,9.7762895 L12.3219587,6.53573756 L8.76860696,9.10176283 C8.79527288,9.18168766 8.80973451,9.26734392 8.80973451,9.35643564 C8.80973451,9.38648562 8.80808927,9.41614476 8.80488539,9.44532496 L10.1751048,10.017718 C10.3177336,9.85496609 10.5254176,9.75247525 10.7566372,9.75247525 C10.8222783,9.75247525 10.8860226,9.7607354 10.9469202,9.7762895 Z M11.5286571,10.6492378 C11.5030868,10.8462135 11.406352,11.0203641 11.2655851,11.1440931 L12.6616143,14.220551 C12.7068024,14.2122532 12.7533462,14.2079208 12.800885,14.2079208 C12.8841793,14.2079208 12.9644195,14.2212213 13.0396643,14.245848 L15.2222547,10.4596348 C15.1262589,10.3780658 15.0498703,10.2734236 15.0013287,10.1540892 L11.5286571,10.6492378 Z M11.2899449,9.96735014 C11.3734324,10.0471801 11.4395977,10.1455368 11.4820937,10.2559648 L14.9474075,9.76186528 C14.963901,9.61289739 15.0210189,9.47643773 15.1072269,9.36421784 L13.1168183,6.51626555 C13.020262,6.55990726 12.9133579,6.58415842 12.800885,6.58415842 C12.7759665,6.58415842 12.7513213,6.58296805 12.7270015,6.58064019 L11.2899449,9.96735014 Z M20.6123224,9.75595862 C20.6365237,9.75365373 20.6610469,9.75247525 20.6858407,9.75247525 C20.9240775,9.75247525 21.1373285,9.86128143 21.280178,10.0327013 L22.6399536,9.46467103 C22.6351994,9.42928315 22.6327434,9.39315113 22.6327434,9.35643564 C22.6327434,9.27330989 22.645333,9.19317489 22.6686788,9.11789557 L19.1409252,6.5244161 L20.6123224,9.75595862 Z M19.9563009,10.2668105 C20.0127402,10.1135185 20.1145452,9.98276222 20.2450929,9.89144868 L18.736405,6.57834731 C18.7053284,6.58218373 18.6736874,6.58415842 18.6415929,6.58415842 C18.5291199,6.58415842 18.4222159,6.55990726 18.3256596,6.51626555 L16.335251,9.36421784 C16.4218563,9.47695488 16.4791027,9.61415563 16.4952958,9.76392559 L19.9563009,10.2668105 Z M18.0202671,6.26967383 C17.9690722,6.20088216 17.9286667,6.12332371 17.9016121,6.03960396 L13.5408658,6.03960396 C13.5138112,6.12332371 13.4734056,6.20088216 13.4222108,6.26967383 L15.4160535,9.12253971 C15.5097715,9.08189765 15.6129228,9.05940594 15.7212389,9.05940594 C15.8295551,9.05940594 15.9327064,9.08189765 16.0264244,9.12253971 L18.0202671,6.26967383 Z"/>
    <filter id="qtum-d" width="115.9%" height="117.5%" x="-8%" y="-6.2%" filterUnits="objectBoundingBox">
      <feOffset dy=".5" in="SourceAlpha" result="shadowOffsetOuter1"/>
      <feGaussianBlur in="shadowOffsetOuter1" result="shadowBlurOuter1" stdDeviation=".5"/>
      <feColorMatrix in="shadowBlurOuter1" values="0 0 0 0 0   0 0 0 0 0   0 0 0 0 0  0 0 0 0.204257246 0"/>
    </filter>
  </defs>
  <g fill="none" fill-rule="evenodd">
    <use fill="#000" filter="url(#qtum-a)" xlink:href="#qtum-b"/>
    <use fill="#2E9AD0" xlink:href="#qtum-b"/>
    <use fill="url(#qtum-c)" style="mix-blend-mode:soft-light" xlink:href="#qtum-b"/>
    <circle cx="16" cy="15" r="14.5" stroke="#000" stroke-opacity=".097"/>
    <g fill-rule="nonzero">
      <use fill="#000" filter="url(#qtum-d)" xlink:href="#qtum-e"/>
      <use fill="#FFF" fill-rule="evenodd" xlink:href="#qtum-e"/>
    </g>
  </g>
</svg>

<svg xmlns="http://www.w3.org/2000/svg" xmlns:xlink="http://www.w3.org/1999/xlink" width="32" height="32"><defs><linearGradient id="c" x1="50%" x2="50%" y1="0%" y2="100%"><stop offset="0%" stop-color="#FFF" stop-opacity=".5"/><stop offset="100%" stop-opacity=".5"/></linearGradient><circle id="b" cx="16" cy="15" r="15"/><filter id="a" width="111.7%" height="111.7%" x="-5.8%" y="-4.2%" filterUnits="objectBoundingBox"><feOffset dy=".5" in="SourceAlpha" result="shadowOffsetOuter1"/><feGaussianBlur in="shadowOffsetOuter1" result="shadowBlurOuter1" stdDeviation=".5"/><feComposite in="shadowBlurOuter1" in2="SourceAlpha" operator="out" result="shadowBlurOuter1"/><feColorMatrix in="shadowBlurOuter1" values="0 0 0 0 0 0 0 0 0 0 0 0 0 0 0 0 0 0 0.199473505 0"/></filter><path id="e" d="M25.313 22.636L23.34 20.88l-3.992 2.995a.8.8 0 0 1 .072.333.786.786 0 0 1-.778.792.783.783 0 0 1-.766-.644h-4.31a.783.783 0 0 1-.765.644.786.786 0 0 1-.779-.792.8.8 0 0 1 .071-.331l-3.546-2.64a.768.768 0 0 1-.516.199.786.786 0 0 1-.779-.792c0-.3.164-.561.406-.696l-1.303-4.16A.786.786 0 0 1 5.5 15a.786.786 0 0 1 .88-.785l1.281-4.161a.794.794 0 0 1-.409-.698c0-.437.349-.792.779-.792.202 0 .386.078.524.206l3.573-2.58a.799.799 0 0 1-.106-.398c0-.437.349-.792.779-.792.38 0 .697.277.765.644h4.31A.783.783 0 0 1 18.642 5c.43 0 .778.355.778.792a.8.8 0 0 1-.095.38l3.55 2.61a.77.77 0 0 1 .537-.218c.43 0 .778.355.778.792a.795.795 0 0 1-.354.665l1.276 4.189a.777.777 0 0 1 .83.79.786.786 0 0 1-.804.792l-1.497 4.83 1.917 1.706c.206-.186.477-.298.774-.298.645 0 1.168.532 1.168 1.188 0 .656-.523 1.188-1.168 1.188a1.178 1.178 0 0 1-1.168-1.188c0-.212.054-.41.15-.582zm-6.605.783l1.487-3.349a.794.794 0 0 1-.256-.388l-3.45.502a.795.795 0 0 1-.188.395l2.047 2.895a.765.765 0 0 1 .36-.055zm.393.15l3.869-2.903-1.668-.726a.773.773 0 0 1-.753.295l-1.473 3.316a.78.78 0 0 1 .025.017zm-1.065.141l-2.06-2.912a.766.766 0 0 1-.51 0l-2.06 2.912a.795.795 0 0 1 .135.25h4.36a.795.795 0 0 1 .135-.25zm6.728-8.03a.794.794 0 0 1-.379-.68c0-.28.142-.525.357-.666l-1.206-3.96-.27 3.874c.31.104.535.401.535.752a.791.791 0 0 1-.529.75l.266 3.886 1.226-3.956zm-2.254-1.277l-1.584-3.105a.766.766 0 0 1-.4.022l-1.392 3.067a.796.796 0 0 1 .286.613.796.796 0 0 1-.295.62l1.435 3.054a.771.771 0 0 1 .31.012l1.619-3.11a.796.796 0 0 1-.246-.576c0-.238.104-.452.267-.597zm.374 1.377a.763.763 0 0 1-.054-.012l-1.617 3.104a.796.796 0 0 1 .243.704l1.74.758-.312-4.554zm-.006-1.558l.286-4.114a.781.781 0 0 1-.376-.277l-1.338.559a.81.81 0 0 1-.195.695l1.604 3.14a.763.763 0 0 1 .019-.003zm-4.108 1.56a.771.771 0 0 1-.335-.018l-2.123 3.77c.063.074.112.16.145.254l3.468-.504c.04-.181.14-.34.278-.45L18.77 15.78zm.01-1.561l1.397-3.077a.795.795 0 0 1-.262-.483l-3.475-.505a.794.794 0 0 1-.164.251l2.139 3.835a.767.767 0 0 1 .366-.021zm-.682 1.346a.796.796 0 0 1-.235-.567c0-.214.084-.409.22-.551l-2.14-3.838a.767.767 0 0 1-.368.019l-2.207 3.827a.797.797 0 0 1 .212.543.796.796 0 0 1-.227.559l2.168 3.725a.768.768 0 0 1 .47.023l2.107-3.74zm-11.377.085l1.242 3.966.293-3.844A.79.79 0 0 1 7.642 15c0-.385.27-.705.627-.777l-.303-3.834-1.223 3.975a.795.795 0 0 1 .315.636c0 .27-.134.51-.337.652zm3.888 3.026a.77.77 0 0 1 .348.012l1.37-3.061a.796.796 0 0 1-.305-.629c0-.248.112-.469.287-.614l-1.392-3.066a.77.77 0 0 1-.292.005l-1.679 3.091A.796.796 0 0 1 9.2 15a.796.796 0 0 1-.24.572l1.65 3.106zm.324 1.55a.769.769 0 0 1-.78-.273l-1.35.588a.813.813 0 0 1-.038.365l3.575 2.662a.78.78 0 0 1 .032-.023l-1.44-3.32zm-.943-.633a.796.796 0 0 1 .267-.748l-1.613-3.035-.313 4.1a.784.784 0 0 1 .328.263l1.331-.58zm1.53-.299l3.465.494a.794.794 0 0 1 .197-.312l-2.164-3.717a.767.767 0 0 1-.332.023l-1.39 3.101c.112.109.192.251.224.411zm-.02.397a.794.794 0 0 1-.222.35l1.463 3.375a.776.776 0 0 1 .353.056l2.048-2.895a.795.795 0 0 1-.188-.393l-3.454-.493zm-1.503-9.322l-1.331-.556a.784.784 0 0 1-.333.272l.32 4.051 1.616-2.976a.796.796 0 0 1-.272-.79zm.95-.595l1.375-3.24-3.553 2.566a.803.803 0 0 1 .036.343l1.37.573a.771.771 0 0 1 .772-.242zm.582.873a.795.795 0 0 1-.263.495l1.396 3.077a.77.77 0 0 1 .378.025l2.182-3.786a.794.794 0 0 1-.22-.306l-3.473.495zm-.24-.682c.084.08.15.179.193.289l3.465-.494a.796.796 0 0 1 .16-.398l-1.99-2.848a.765.765 0 0 1-.39.065L11.29 9.967zm9.323-.211a.775.775 0 0 1 .668.277l1.36-.568a.813.813 0 0 1 .029-.347L19.14 6.524l1.471 3.232zm-.656.51a.793.793 0 0 1 .29-.375l-1.51-3.313a.774.774 0 0 1-.41-.062l-1.99 2.848c.086.113.143.25.16.4l3.46.503zM18.02 6.27a.795.795 0 0 1-.118-.23H13.54a.795.795 0 0 1-.119.23l1.994 2.853a.765.765 0 0 1 .61 0L18.02 6.27z"/><filter id="d" width="115.9%" height="117.5%" x="-8%" y="-6.2%" filterUnits="objectBoundingBox"><feOffset dy=".5" in="SourceAlpha" result="shadowOffsetOuter1"/><feGaussianBlur in="shadowOffsetOuter1" result="shadowBlurOuter1" stdDeviation=".5"/><feColorMatrix in="shadowBlurOuter1" values="0 0 0 0 0 0 0 0 0 0 0 0 0 0 0 0 0 0 0.204257246 0"/></filter></defs><g fill="none" fill-rule="evenodd"><use fill="#000" filter="url(#a)" xlink:href="#b"/><use fill="#2E9AD0" xlink:href="#b"/><use fill="url(#c)" style="mix-blend-mode:soft-light" xlink:href="#b"/><circle cx="16" cy="15" r="14.5" stroke="#000" stroke-opacity=".097"/><g fill-rule="nonzero"><use fill="#000" filter="url(#d)" xlink:href="#e"/><use fill="#FFF" fill-rule="evenodd" xlink:href="#e"/></g></g></svg>
